Newaita-dark/.places-manjaro/128/user-desktop.svg

<?xml version="1.0" encoding="UTF-8"?>
<svg xmlns="http://www.w3.org/2000/svg" xmlns:xlink="http://www.w3.org/1999/xlink" width="128pt" height="128pt" viewBox="0 0 128 128" version="1.1">
<defs>
<linearGradient id="linear0" gradientUnits="userSpaceOnUse" x1="254" y1="233.5" x2="254" y2="254.666672" gradientTransform="matrix(0.250024,0,0,0.250024,-0.0000152602,53.755133)">
<stop offset="0" style="stop-color:rgb(0%,0%,0%);stop-opacity:0.27451;"/>
<stop offset="1" style="stop-color:rgb(0%,0%,0%);stop-opacity:0;"/>
</linearGradient>
<radialGradient id="radial0" gradientUnits="userSpaceOnUse" cx="450.908936" cy="189.579361" fx="450.908936" fy="189.579361" r="21.166656" gradientTransform="matrix(0.000000696681,-0.31253,-0.562554,-0.000000406154,213.814764,254.381323)">
<stop offset="0" style="stop-color:rgb(0%,0%,0%);stop-opacity:0.313725;"/>
<stop offset="0.222222" style="stop-color:rgb(0%,0%,0%);stop-opacity:0.27451;"/>
<stop offset="1" style="stop-color:rgb(0%,0%,0%);stop-opacity:0;"/>
</radialGradient>
<radialGradient id="radial1" gradientUnits="userSpaceOnUse" cx="450.908936" cy="189.579361" fx="450.908936" fy="189.579361" r="21.166656" gradientTransform="matrix(-0.000000696681,0.31253,0.562554,0.000000406154,-86.802646,-30.109923)">
<stop offset="0" style="stop-color:rgb(0%,0%,0%);stop-opacity:0.313725;"/>
<stop offset="0.222222" style="stop-color:rgb(0%,0%,0%);stop-opacity:0.27451;"/>
<stop offset="1" style="stop-color:rgb(0%,0%,0%);stop-opacity:0;"/>
</radialGradient>
<radialGradient id="radial2" gradientUnits="userSpaceOnUse" cx="450.908936" cy="189.579361" fx="450.908936" fy="189.579361" r="21.166656" gradientTransform="matrix(-0.000000696681,-0.31253,0.562554,-0.000000406154,-86.802646,254.381323)">
<stop offset="0" style="stop-color:rgb(0%,0%,0%);stop-opacity:0.313725;"/>
<stop offset="0.222222" style="stop-color:rgb(0%,0%,0%);stop-opacity:0.27451;"/>
<stop offset="1" style="stop-color:rgb(0%,0%,0%);stop-opacity:0;"/>
</radialGradient>
<radialGradient id="radial3" gradientUnits="userSpaceOnUse" cx="450.908936" cy="189.579361" fx="450.908936" fy="189.579361" r="21.166656" gradientTransform="matrix(0.000000696681,0.31253,-0.562554,0.000000406154,213.814756,-30.109925)">
<stop offset="0" style="stop-color:rgb(0%,0%,0%);stop-opacity:0.313725;"/>
<stop offset="0.222222" style="stop-color:rgb(0%,0%,0%);stop-opacity:0.27451;"/>
<stop offset="1" style="stop-color:rgb(0%,0%,0%);stop-opacity:0;"/>
</radialGradient>
<linearGradient id="linear1" gradientUnits="userSpaceOnUse" x1="254" y1="233.5" x2="254" y2="-147.5" gradientTransform="matrix(0.250024,0,0,0.250024,0,53.755133)">
<stop offset="0" style="stop-color:rgb(38.039216%,38.039216%,38.039216%);stop-opacity:1;"/>
<stop offset="1" style="stop-color:rgb(45.882353%,45.882353%,45.882353%);stop-opacity:1;"/>
</linearGradient>
<linearGradient id="linear2" gradientUnits="userSpaceOnUse" x1="880.000061" y1="254.291016" x2="880.000061" y2="1694.291138" gradientTransform="matrix(0.0661521,0,0,0.0661521,0,0.0547156)">
<stop offset="0" style="stop-color:rgb(30.196078%,71.372549%,67.45098%);stop-opacity:1;"/>
<stop offset="1" style="stop-color:rgb(14.901961%,65.098039%,60.392157%);stop-opacity:1;"/>
</linearGradient>
<linearGradient id="linear3" gradientUnits="userSpaceOnUse" x1="444.5" y1="185.875" x2="444.5" y2="148.833328" gradientTransform="matrix(0.5,0,0,0.571428,-105.833473,106.337929)">
<stop offset="0" style="stop-color:rgb(25.882353%,25.882353%,25.882353%);stop-opacity:1;"/>
<stop offset="1" style="stop-color:rgb(38.039216%,38.039216%,38.039216%);stop-opacity:1;"/>
</linearGradient>
<linearGradient id="linear4" gradientUnits="userSpaceOnUse" x1="444.5" y1="185.875" x2="444.5" y2="148.833328" gradientTransform="matrix(0.5,0,0,0.571428,-21.166807,106.119087)">
<stop offset="0" style="stop-color:rgb(25.882353%,25.882353%,25.882353%);stop-opacity:1;"/>
<stop offset="1" style="stop-color:rgb(38.039216%,38.039216%,38.039216%);stop-opacity:1;"/>
</linearGradient>
<linearGradient id="linear5" gradientUnits="userSpaceOnUse" x1="444.5" y1="185.875" x2="444.5" y2="148.833328" gradientTransform="matrix(0.5,0,0,0.571428,169.333206,106.337929)">
<stop offset="0" style="stop-color:rgb(25.882353%,25.882353%,25.882353%);stop-opacity:1;"/>
<stop offset="1" style="stop-color:rgb(38.039216%,38.039216%,38.039216%);stop-opacity:1;"/>
</linearGradient>
</defs>
<g id="surface1">
<path style=" stroke:none;fill-rule:nonzero;fill:url(#linear0);" d="M 18.523438 112.136719 L 108.488281 112.136719 L 108.488281 117.429688 L 18.523438 117.429688 Z M 18.523438 112.136719 "/>
<path style=" stroke:none;fill-rule:nonzero;fill:url(#radial0);" d="M 108.488281 112.136719 L 119.074219 112.136719 L 119.074219 106.84375 L 108.488281 106.84375 Z M 108.488281 112.136719 "/>
<path style=" stroke:none;fill-rule:nonzero;fill:url(#radial1);" d="M 18.523438 112.136719 L 7.9375 112.136719 L 7.9375 117.429688 L 18.523438 117.429688 Z M 18.523438 112.136719 "/>
<path style=" stroke:none;fill-rule:nonzero;fill:url(#radial2);" d="M 18.523438 112.136719 L 7.9375 112.136719 L 7.9375 106.84375 L 18.523438 106.84375 Z M 18.523438 112.136719 "/>
<path style=" stroke:none;fill-rule:nonzero;fill:url(#radial3);" d="M 108.488281 112.136719 L 119.074219 112.136719 L 119.074219 117.429688 L 108.488281 117.429688 Z M 108.488281 112.136719 "/>
<path style=" stroke:none;fill-rule:nonzero;fill:url(#linear1);" d="M 12.769531 17.046875 L 114.242188 17.046875 C 116.910156 17.046875 119.074219 19.285156 119.074219 22.042969 L 119.074219 106.96875 C 119.074219 109.726562 116.910156 111.964844 114.242188 111.964844 L 12.769531 111.964844 C 10.101562 111.964844 7.9375 109.726562 7.9375 106.96875 L 7.9375 22.042969 C 7.9375 19.285156 10.101562 17.046875 12.769531 17.046875 Z M 12.769531 17.046875 "/>
<path style=" stroke:none;fill-rule:nonzero;fill:rgb(0%,0%,0%);fill-opacity:0.235294;" d="M 13.230469 112.1875 C 10.296875 112.1875 7.9375 109.828125 7.9375 106.894531 L 7.9375 105.519531 C 7.9375 108.453125 10.296875 110.8125 13.230469 110.8125 L 113.78125 110.8125 C 116.714844 110.8125 119.074219 108.453125 119.074219 105.519531 L 119.074219 106.894531 C 119.074219 109.828125 116.714844 112.1875 113.78125 112.1875 Z M 13.230469 112.1875 "/>
<path style=" stroke:none;fill-rule:nonzero;fill:url(#linear2);" d="M 26.460938 96.3125 C 23.527344 96.3125 21.167969 98.675781 21.167969 101.605469 L 21.167969 109.542969 C 21.167969 111.011719 22.347656 112.191406 23.816406 112.191406 L 103.199219 112.191406 C 104.664062 112.191406 105.84375 111.011719 105.84375 109.542969 L 105.84375 101.605469 C 105.84375 98.675781 103.484375 96.3125 100.550781 96.3125 Z M 26.460938 96.3125 "/>
<path style="fill-rule:nonzero;fill:url(#linear3);stroke-width:3;stroke-linecap:round;stroke-linejoin:miter;stroke:rgb(12.941177%,12.941177%,12.941177%);stroke-opacity:1;stroke-miterlimit:4;" d="M 116.410758 191.383067 C 122.25395 191.383067 127.003497 196.11699 127.003497 201.975806 C 127.003497 207.818998 122.25395 212.552921 116.410758 212.552921 C 110.567566 212.552921 105.833643 207.818998 105.833643 201.975806 C 105.833643 196.11699 110.567566 191.383067 116.410758 191.383067 Z M 116.410758 191.383067 " transform="matrix(0.250024,0,0,0.250024,0,53.755133)"/>
<path style="fill-rule:nonzero;fill:rgb(31.960784%,31.960784%,31.960784%);fill-opacity:1;stroke-width:3;stroke-linecap:round;stroke-linejoin:miter;stroke:rgb(12.941177%,12.941177%,12.941177%);stroke-opacity:1;stroke-miterlimit:4;" d="M 158.750465 191.383067 C 164.593657 191.383067 169.32758 196.11699 169.32758 201.975806 C 169.32758 207.818998 164.593657 212.552921 158.750465 212.552921 C 152.907273 212.552921 148.17335 207.818998 148.17335 201.975806 C 148.17335 196.11699 152.907273 191.383067 158.750465 191.383067 Z M 158.750465 191.383067 " transform="matrix(0.250024,0,0,0.250024,0,53.755133)"/>
<path style="fill-rule:nonzero;fill:url(#linear4);stroke-width:3;stroke-linecap:round;stroke-linejoin:miter;stroke:rgb(12.941177%,12.941177%,12.941177%);stroke-opacity:1;stroke-miterlimit:4;" d="M 201.090172 191.164338 C 206.933364 191.164338 211.667287 195.898261 211.667287 201.757077 C 211.667287 207.600269 206.933364 212.334192 201.090172 212.334192 C 195.231356 212.334192 190.497433 207.600269 190.497433 201.757077 C 190.497433 195.898261 195.231356 191.164338 201.090172 191.164338 Z M 201.090172 191.164338 " transform="matrix(0.250024,0,0,0.250024,0,53.755133)"/>
<path style="fill-rule:nonzero;fill:url(#linear5);stroke-width:3;stroke-linecap:round;stroke-linejoin:miter;stroke:rgb(12.941177%,12.941177%,12.941177%);stroke-opacity:1;stroke-miterlimit:4;" d="M 391.587605 191.383067 C 397.430797 191.383067 402.16472 196.11699 402.16472 201.975806 C 402.16472 207.818998 397.430797 212.552921 391.587605 212.552921 C 385.744413 212.552921 380.994867 207.818998 380.994867 201.975806 C 380.994867 196.11699 385.744413 191.383067 391.587605 191.383067 Z M 391.587605 191.383067 " transform="matrix(0.250024,0,0,0.250024,0,53.755133)"/>
<path style=" stroke:none;fill-rule:nonzero;fill:rgb(100%,100%,100%);fill-opacity:0.392157;" d="M 26.460938 96.3125 C 23.527344 96.3125 21.167969 98.675781 21.167969 101.605469 L 21.167969 102.875 C 21.167969 99.941406 23.527344 97.582031 26.460938 97.582031 L 100.550781 97.582031 C 103.484375 97.582031 105.84375 99.941406 105.84375 102.875 L 105.84375 101.605469 C 105.84375 98.675781 103.484375 96.3125 100.550781 96.3125 Z M 26.460938 96.3125 "/>
<path style=" stroke:none;fill-rule:nonzero;fill:rgb(0%,0%,0%);fill-opacity:0.235294;" d="M 21.167969 108.222656 L 21.167969 109.542969 C 21.167969 111.011719 22.347656 112.191406 23.816406 112.191406 L 103.199219 112.191406 C 104.664062 112.191406 105.84375 111.011719 105.84375 109.542969 L 105.84375 108.222656 C 105.84375 109.6875 104.664062 110.867188 103.199219 110.867188 L 23.816406 110.867188 C 22.347656 110.867188 21.167969 109.6875 21.167969 108.222656 Z M 21.167969 108.222656 "/>
<path style=" stroke:none;fill-rule:nonzero;fill:rgb(12.941177%,12.941177%,12.941177%);fill-opacity:1;" d="M 26.460938 95.9375 C 23.328125 95.9375 20.792969 98.472656 20.792969 101.605469 L 20.792969 109.542969 C 20.792969 111.210938 22.148438 112.566406 23.816406 112.566406 L 103.199219 112.566406 C 104.863281 112.566406 106.21875 111.210938 106.21875 109.542969 L 106.21875 101.605469 C 106.21875 98.472656 103.683594 95.9375 100.550781 95.9375 Z M 26.460938 96.6875 L 100.550781 96.6875 C 103.28125 96.6875 105.46875 98.875 105.46875 101.605469 L 105.46875 109.542969 C 105.46875 110.808594 104.460938 111.816406 103.199219 111.816406 L 23.816406 111.816406 C 22.550781 111.816406 21.542969 110.808594 21.542969 109.542969 L 21.542969 101.605469 C 21.542969 98.875 23.730469 96.6875 26.460938 96.6875 Z M 26.460938 96.6875 "/>
<path style=" stroke:none;fill-rule:nonzero;fill:rgb(100%,100%,100%);fill-opacity:0.392157;" d="M 13.230469 17.183594 C 10.296875 17.183594 7.9375 19.542969 7.9375 22.472656 L 7.9375 23.847656 C 7.9375 20.917969 10.296875 18.558594 13.230469 18.558594 L 113.78125 18.558594 C 116.714844 18.558594 119.074219 20.917969 119.074219 23.847656 L 119.074219 22.472656 C 119.074219 19.542969 116.714844 17.183594 113.78125 17.183594 Z M 13.230469 17.183594 "/>
<path style=" stroke:none;fill-rule:nonzero;fill:rgb(12.941177%,12.941177%,12.941177%);fill-opacity:1;" d="M 13.230469 16.5 C 10.097656 16.5 7.5625 19.035156 7.5625 22.167969 L 7.5625 106.84375 C 7.5625 109.976562 10.097656 112.511719 13.230469 112.511719 L 113.78125 112.511719 C 116.914062 112.511719 119.449219 109.976562 119.449219 106.84375 L 119.449219 22.167969 C 119.449219 19.035156 116.914062 16.5 113.78125 16.5 Z M 13.230469 17.25 L 113.78125 17.25 C 116.511719 17.25 118.699219 19.4375 118.699219 22.167969 L 118.699219 106.84375 C 118.699219 109.574219 116.511719 111.761719 113.78125 111.761719 L 13.230469 111.761719 C 10.5 111.761719 8.3125 109.574219 8.3125 106.84375 L 8.3125 22.167969 C 8.3125 19.4375 10.5 17.25 13.230469 17.25 Z M 13.230469 17.25 "/>
</g>
</svg>

<svg xmlns="http://www.w3.org/2000/svg" width="128pt" height="128pt" viewBox="0 0 128 128"><defs><linearGradient id="a" gradientUnits="userSpaceOnUse" x1="254" y1="233.5" x2="254" y2="254.667" gradientTransform="matrix(.25002 0 0 .25002 0 53.755)"><stop offset="0" stop-opacity=".275"/><stop offset="1" stop-opacity="0"/></linearGradient><radialGradient id="b" gradientUnits="userSpaceOnUse" cx="450.909" cy="189.579" fx="450.909" fy="189.579" r="21.167" gradientTransform="matrix(0 -.31253 -.56255 0 213.815 254.381)"><stop offset="0" stop-opacity=".314"/><stop offset=".222" stop-opacity=".275"/><stop offset="1" stop-opacity="0"/></radialGradient><radialGradient id="c" gradientUnits="userSpaceOnUse" cx="450.909" cy="189.579" fx="450.909" fy="189.579" r="21.167" gradientTransform="matrix(0 .31253 .56255 0 -86.803 -30.11)"><stop offset="0" stop-opacity=".314"/><stop offset=".222" stop-opacity=".275"/><stop offset="1" stop-opacity="0"/></radialGradient><radialGradient id="d" gradientUnits="userSpaceOnUse" cx="450.909" cy="189.579" fx="450.909" fy="189.579" r="21.167" gradientTransform="matrix(0 -.31253 .56255 0 -86.803 254.381)"><stop offset="0" stop-opacity=".314"/><stop offset=".222" stop-opacity=".275"/><stop offset="1" stop-opacity="0"/></radialGradient><radialGradient id="e" gradientUnits="userSpaceOnUse" cx="450.909" cy="189.579" fx="450.909" fy="189.579" r="21.167" gradientTransform="matrix(0 .31253 -.56255 0 213.815 -30.11)"><stop offset="0" stop-opacity=".314"/><stop offset=".222" stop-opacity=".275"/><stop offset="1" stop-opacity="0"/></radialGradient><linearGradient id="f" gradientUnits="userSpaceOnUse" x1="254" y1="233.5" x2="254" y2="-147.5" gradientTransform="matrix(.25002 0 0 .25002 0 53.755)"><stop offset="0" stop-color="#616161"/><stop offset="1" stop-color="#757575"/></linearGradient><linearGradient id="g" gradientUnits="userSpaceOnUse" x1="880" y1="254.291" x2="880" y2="1694.291" gradientTransform="translate(0 .055) scale(.06615)"><stop offset="0" stop-color="#4db6ac"/><stop offset="1" stop-color="#26a69a"/></linearGradient><linearGradient id="h" gradientUnits="userSpaceOnUse" x1="444.5" y1="185.875" x2="444.5" y2="148.833" gradientTransform="matrix(.5 0 0 .57143 -105.833 106.338)"><stop offset="0" stop-color="#424242"/><stop offset="1" stop-color="#616161"/></linearGradient><linearGradient id="i" gradientUnits="userSpaceOnUse" x1="444.5" y1="185.875" x2="444.5" y2="148.833" gradientTransform="matrix(.5 0 0 .57143 -21.167 106.12)"><stop offset="0" stop-color="#424242"/><stop offset="1" stop-color="#616161"/></linearGradient><linearGradient id="j" gradientUnits="userSpaceOnUse" x1="444.5" y1="185.875" x2="444.5" y2="148.833" gradientTransform="matrix(.5 0 0 .57143 169.333 106.338)"><stop offset="0" stop-color="#424242"/><stop offset="1" stop-color="#616161"/></linearGradient></defs><path d="M18.523 112.137h89.965v5.293H18.523zm0 0" fill="url(#a)"/><path d="M108.488 112.137h10.586v-5.293h-10.586zm0 0" fill="url(#b)"/><path d="M18.523 112.137H7.938v5.293h10.585zm0 0" fill="url(#c)"/><path d="M18.523 112.137H7.938v-5.293h10.585zm0 0" fill="url(#d)"/><path d="M108.488 112.137h10.586v5.293h-10.586zm0 0" fill="url(#e)"/><path d="M12.77 17.047h101.472c2.668 0 4.832 2.238 4.832 4.996v84.926c0 2.758-2.164 4.996-4.832 4.996H12.77c-2.668 0-4.832-2.238-4.832-4.996V22.043c0-2.758 2.164-4.996 4.832-4.996zm0 0" fill="url(#f)"/><path d="M13.23 112.188a5.28 5.28 0 0 1-5.293-5.293v-1.375a5.28 5.28 0 0 0 5.293 5.293h100.551a5.28 5.28 0 0 0 5.293-5.293v1.375a5.28 5.28 0 0 1-5.293 5.293zm0 0" fill-opacity=".235"/><path d="M26.46 96.313a5.282 5.282 0 0 0-5.292 5.292v7.938a2.64 2.64 0 0 0 2.648 2.648H103.2a2.64 2.64 0 0 0 2.645-2.648v-7.938c0-2.93-2.36-5.293-5.293-5.293zm0 0" fill="url(#g)"/><path d="M116.41 191.383c5.844 0 10.593 4.734 10.593 10.593 0 5.843-4.749 10.577-10.592 10.577-5.843 0-10.577-4.734-10.577-10.577 0-5.859 4.734-10.593 10.577-10.593zm0 0" transform="matrix(.25002 0 0 .25002 0 53.755)" fill="url(#h)" stroke-width="3" stroke-linecap="round" stroke="#212121"/><path d="M39.691 101.605a2.645 2.645 0 0 1 2.645 2.649 2.644 2.644 0 1 1-5.29 0 2.645 2.645 0 0 1 2.645-2.649zm0 0" fill="#515151" stroke-width=".7500600000000001" stroke-linecap="round" stroke="#212121"/><path d="M201.09 191.164c5.843 0 10.577 4.734 10.577 10.593 0 5.843-4.734 10.577-10.577 10.577-5.859 0-10.593-4.734-10.593-10.577a10.582 10.582 0 0 1 10.593-10.593zm0 0" transform="matrix(.25002 0 0 .25002 0 53.755)" fill="url(#i)" stroke-width="3" stroke-linecap="round" stroke="#212121"/><path d="M391.588 191.383c5.843 0 10.577 4.734 10.577 10.593 0 5.843-4.734 10.577-10.577 10.577-5.844 0-10.593-4.734-10.593-10.577 0-5.859 4.75-10.593 10.593-10.593zm0 0" transform="matrix(.25002 0 0 .25002 0 53.755)" fill="url(#j)" stroke-width="3" stroke-linecap="round" stroke="#212121"/><path d="M26.46 96.313a5.282 5.282 0 0 0-5.292 5.292v1.27a5.28 5.28 0 0 1 5.293-5.293h74.09a5.28 5.28 0 0 1 5.293 5.293v-1.27c0-2.93-2.36-5.293-5.293-5.293zm0 0" fill="#fff" fill-opacity=".392"/><path d="M21.168 108.223v1.32a2.64 2.64 0 0 0 2.648 2.648H103.2a2.64 2.64 0 0 0 2.645-2.648v-1.32a2.639 2.639 0 0 1-2.645 2.644H23.816a2.64 2.64 0 0 1-2.648-2.644zm0 0" fill-opacity=".235"/><path d="M26.46 95.938a5.665 5.665 0 0 0-5.667 5.667v7.938a3.026 3.026 0 0 0 3.023 3.023H103.2a3.025 3.025 0 0 0 3.02-3.023v-7.938a5.665 5.665 0 0 0-5.668-5.668zm0 .75h74.09a4.9 4.9 0 0 1 4.919 4.917v7.938a2.26 2.26 0 0 1-2.27 2.273H23.816a2.26 2.26 0 0 1-2.273-2.273v-7.938a4.9 4.9 0 0 1 4.918-4.918zm0 0" fill="#212121"/><path d="M13.23 17.184a5.279 5.279 0 0 0-5.293 5.289v1.375c0-2.93 2.36-5.29 5.293-5.29h100.551a5.279 5.279 0 0 1 5.293 5.29v-1.375c0-2.93-2.36-5.29-5.293-5.29zm0 0" fill="#fff" fill-opacity=".392"/><path d="M13.23 16.5a5.665 5.665 0 0 0-5.668 5.668v84.676a5.665 5.665 0 0 0 5.668 5.668h100.551a5.665 5.665 0 0 0 5.668-5.668V22.168a5.665 5.665 0 0 0-5.668-5.668zm0 .75h100.551a4.9 4.9 0 0 1 4.918 4.918v84.676a4.9 4.9 0 0 1-4.918 4.918H13.231a4.9 4.9 0 0 1-4.918-4.918V22.168a4.9 4.9 0 0 1 4.917-4.918zm0 0" fill="#212121"/></svg>
